X: 24
T:Boys of Lough Gowna, The
T:Paddy O'Brien's Jig
M:6/8
L:1/8
C:Paddy O'Brien [from Co. Offaly]
R:Double Jig
K:G
D[|:GFG BGB|dge dBG|=FEF AFA|c=fd cA^F|!
DGA ~B2c|dfa gdB|cAG FGA|1BGF G2D:|2BGF GBd|!
|:gfg dgd|BdB GBd|cBc =fed|c=fd cA^F|!
gbg dgd|BdB GBd|cAG FGA|1BGF GBd:|2BGF G2D|]!
